icons/alerts/bell-x-24.svg

<svg width="24" height="24" viewBox="0 0 24 24" fill="none" xmlns="http://www.w3.org/2000/svg">
<path fill-rule="evenodd" clip-rule="evenodd" d="M5 11.539V7C5 3.8524 7.786 1.43531 11.0852 1.05287C11.4463 1.01101 11.7655 1.26877 11.8335 1.62587C11.9199 2.07963 11.5703 2.49738 11.1125 2.55891C8.44183 2.91782 6.5 4.86601 6.5 7V11.539C6.50026 12.4767 6.22294 13.3936 5.703 14.174L3.503 17.472L3.5 17.482L3.501 17.489L3.505 17.495L3.511 17.499L3.518 17.5H20.482L20.489 17.499L20.495 17.495L20.499 17.489L20.5 17.483C20.5001 17.4794 20.499 17.4759 20.497 17.473L18.7136 14.7975C18.484 14.4531 18.577 13.9878 18.9213 13.7581C19.2658 13.5283 19.7313 13.6212 19.9611 13.9657L21.745 16.64C21.8974 16.8686 21.9849 17.1343 21.9982 17.4087C22.0114 17.6831 21.95 17.956 21.8203 18.1983C21.6907 18.4405 21.4977 18.643 21.262 18.7842C21.0263 18.9254 20.7567 19 20.482 19H15.5C15.5 19.4596 15.4095 19.9148 15.2336 20.3394C15.0577 20.764 14.7999 21.1499 14.4749 21.4749C14.1499 21.7999 13.764 22.0577 13.3394 22.2336C12.9148 22.4095 12.4596 22.5 12 22.5C11.5404 22.5 11.0852 22.4095 10.6606 22.2336C10.236 22.0577 9.85013 21.7999 9.52513 21.4749C9.20012 21.1499 8.94231 20.764 8.76642 20.3394C8.59053 19.9148 8.5 19.4596 8.5 19H3.519C3.24424 19.0002 2.97457 18.9259 2.73875 18.7849C2.50293 18.6439 2.3098 18.4415 2.17995 18.1994C2.0501 17.9572 1.98841 17.6844 2.00145 17.4099C2.01449 17.1355 2.10178 16.8697 2.254 16.641L4.454 13.342C4.81001 12.8081 5 12.1807 5 11.539ZM14 19H10C10 19.5304 10.2107 20.0391 10.5858 20.4142C10.9609 20.7893 11.4696 21 12 21C12.5304 21 13.0391 20.7893 13.4142 20.4142C13.7893 20.0391 14 19.5304 14 19Z" fill="black"/>
<path d="M17.2803 2.21967C16.9874 1.92678 16.5126 1.92678 16.2197 2.21967C15.9268 2.51256 15.9268 2.98744 16.2197 3.28033L18.9393 6L16.2197 8.71967C15.9268 9.01256 15.9268 9.48744 16.2197 9.78033C16.5126 10.0732 16.9874 10.0732 17.2803 9.78033L20 7.06066L22.7197 9.78033C23.0126 10.0732 23.4874 10.0732 23.7803 9.78033C24.0732 9.48744 24.0732 9.01256 23.7803 8.71967L21.0607 6L23.7803 3.28033C24.0732 2.98744 24.0732 2.51256 23.7803 2.21967C23.4874 1.92678 23.0126 1.92678 22.7197 2.21967L20 4.93934L17.2803 2.21967Z" fill="black"/>
</svg>

<svg xmlns="http://www.w3.org/2000/svg" width="24" height="24"><path fill-rule="evenodd" d="M5 11.539V7c0-3.148 2.786-5.565 6.085-5.947a.691.691 0 01.748.573c.087.454-.263.871-.72.933C8.442 2.918 6.5 4.866 6.5 7v4.539a4.75 4.75 0 01-.797 2.635l-2.2 3.298-.003.01.001.007.004.006.006.004.007.001h16.964l.007-.001.006-.004.004-.006.001-.006a.017.017 0 00-.003-.01l-1.783-2.675a.75.75 0 011.247-.832l1.784 2.674A1.518 1.518 0 0120.482 19H15.5a3.5 3.5 0 11-7 0H3.519a1.518 1.518 0 01-1.265-2.359l2.2-3.299A3.25 3.25 0 005 11.539zM14 19h-4a2 2 0 004 0z"/><path d="M17.28 2.22a.75.75 0 10-1.06 1.06L18.94 6l-2.72 2.72a.75.75 0 001.06 1.06L20 7.06l2.72 2.72a.75.75 0 101.06-1.06L21.06 6l2.72-2.72a.75.75 0 00-1.06-1.06L20 4.94l-2.72-2.72z"/></svg>
